src/next/cmd/sc_closedoc.svg

<svg enable-background="new 0 0 128 128" height="16" viewBox="0 0 16 16" width="16" xmlns="http://www.w3.org/2000/svg" xmlns:xlink="http://www.w3.org/1999/xlink"><filter id="a" color-interpolation-filters="sRGB" height="1.072142" width="1.071866" x="-.035933" y="-.036071"><feGaussianBlur stdDeviation=".66434216"/></filter><radialGradient id="b" cx="-55.685837" cy="-347.11612" gradientTransform="matrix(-1.5371199 -.41187002 .44642111 -1.6660663 -3.560274 -986.20032)" gradientUnits="userSpaceOnUse" r="22.14249"><stop offset="0" stop-color="#ce0000"/><stop offset="1" stop-color="#8b0000"/></radialGradient><linearGradient id="c" gradientUnits="userSpaceOnUse" x1="328.12448" x2="336.98077" y1="120.81158" y2="87.759453"><stop offset="0" stop-color="#ff6500"/><stop offset="1" stop-color="#983600"/></linearGradient><clipPath id="d"><circle cx="343.91208" cy="92.325096" r="36" transform="matrix(.86602539 .50000002 .49999965 -.86602561 0 0)"/></clipPath><filter id="e"><feGaussianBlur stdDeviation="2.8805897"/></filter><radialGradient id="f" cx="343.99899" cy="92" gradientTransform="matrix(.77272624 0 0 .77272572 -346.16061 -428.3788)" gradientUnits="userSpaceOnUse" r="36"><stop offset="0" stop-color="#e5ff00"/><stop offset="1" stop-color="#bff500" stop-opacity="0"/></radialGradient><linearGradient id="g" gradientTransform="matrix(0 .85652932 -.85652994 0 57.018252 360.55477)" gradientUnits="userSpaceOnUse" x1="-80.00296" x2="-45.096584" y1="-131.93112" y2="-131.93112"><stop offset="0" stop-color="#fff"/><stop offset="1" stop-color="#fff" stop-opacity="0"/></linearGradient><linearGradient id="h" gradientUnits="userSpaceOnUse" x1="85.219681" x2="61.336319" y1="93.219681" y2="69.336319"><stop offset="0"/><stop offset="1" stop-color="#393b38"/></linearGradient><linearGradient id="i" gradientUnits="userSpaceOnUse" x1="96" x2="88.000198" y1="104" y2="96.000198"><stop offset="0" stop-color="#888a85"/><stop offset=".0072" stop-color="#8c8e89"/><stop offset=".0673" stop-color="#abaca9"/><stop offset=".1347" stop-color="#c5c6c4"/><stop offset=".2115" stop-color="#dbdbda"/><stop offset=".3012" stop-color="#ebebeb"/><stop offset=".4122" stop-color="#f7f7f6"/><stop offset=".5679" stop-color="#fdfdfd"/><stop offset="1" stop-color="#fff"/></linearGradient><radialGradient id="j" cx="102" cy="112.3047" gradientTransform="matrix(.9787234 0 0 .9818182 1.361705 1.163636)" gradientUnits="userSpaceOnUse" r="139.55859"><stop offset="0" stop-color="#535557"/><stop offset=".11366145" stop-color="#898a8c"/><stop offset=".20296688" stop-color="#ececec"/><stop offset=".2363" stop-color="#fafafa"/><stop offset=".2722" stop-color="#fff"/><stop offset=".5313" stop-color="#fafafa"/><stop offset=".8449" stop-color="#ebecec"/><stop offset="1" stop-color="#e1e2e3"/></radialGradient><radialGradient id="k" cx="102" cy="112.3047" gradientUnits="userSpaceOnUse" r="139.5585"><stop offset="0" stop-color="#00537d"/><stop offset=".0151" stop-color="#186389"/><stop offset=".0558" stop-color="#558ca8"/><stop offset=".0964" stop-color="#89afc3"/><stop offset=".1357" stop-color="#b3ccd8"/><stop offset=".1737" stop-color="#d4e2e9"/><stop offset=".2099" stop-color="#ecf2f5"/><stop offset=".2435" stop-color="#fafcfd"/><stop offset=".2722" stop-color="#fff"/></radialGradient><filter id="l"><feGaussianBlur stdDeviation="1.0394514"/></filter><filter id="m"><feGaussianBlur stdDeviation=".50063244"/></filter><filter id="n"><feGaussianBlur stdDeviation=".4901192"/></filter><filter id="o"><feGaussianBlur stdDeviation=".90565481"/></filter><filter id="p" height="1.247155" width="1.247155" x="-.123577" y="-.123577"><feGaussianBlur stdDeviation="1.7720846"/></filter><g transform="scale(.125)"><path d="m23 9 .04082 112h61.13118c.53 0 1.039-.211 1.414-.586l32.828-32.828c.375-.375.586-.884.586-1.414v-77.172z" filter="url(#l)" opacity=".715069" transform="matrix(1.0416667 0 0 1.0357143 -9.958333 -3.321534)"/><path d="m24.919999 10.931136v108.137934l58.676001-.0001c.53 0 1.039-.211 1.414-.586l31.484-31.765936c.375-.375.586-.884.586-1.414v-74.371898z" filter="url(#m)" opacity=".89589" transform="matrix(1.0416667 0 0 1.0357143 -9.958333 -3.321534)"/><path d="m23 9.9655172.040816 111.0344828h61.131184c.53 0 1.039-.211 1.414-.586 13.296921-8.21061 24.14086-19.26784 32.828-32.828.375-.375.586-.884.586-1.414v-76.2064828z" filter="url(#l)" opacity=".835616" transform="matrix(1.0416667 0 0 1.0357143 -9.958333 -3.321534)"/><path d="m16.000002 8v112h61.172c.53 0 1.039-.211 1.414-.586l32.827998-32.828c.375-.375.586-.884.586-1.414v-77.172z" fill="url(#k)"/><path d="m24.678725 16c-.539276 0-.978723.440836-.978723.981818l.3 94.036362c0 .54197.439447.98182.978723.98182h51.913022c.257404 0 .509915-.10407.691957-.28767l26.129526-26.23113c.18303-.1836.28677-.435927.28677-.694145v-67.805237c0-.540982-.43847-.981818-.97872-.981818z" fill="url(#j)"/><g transform="translate(.000002)"><path d="m111.414 86.586c.25-.25-26.379-1.586-31.414-1.586-1.654 0-3 1.346-3 3 0 5.035 1.336 31.664 1.586 31.414z" filter="url(#p)" opacity=".906849"/><path d="m111.414 86.586c.375-.375-21.97-.586-31.414-.586-1.103 0-2 .897-2 2 0 9.444.211 31.789.586 31.414z" filter="url(#o)" opacity=".2"/><path d="m111.414 86.586c.239-.239-21.607.414-31.414.414-.553 0-1 .447-1 1 0 9.807-.653 31.653-.414 31.414z" fill="url(#h)" filter="url(#n)" opacity=".1"/><path d="m78.586 119.414s11.914-9.914 17.414-15.414 15.414-17.414 15.414-17.414-21.164 1.414-31.414 1.414c0 10.25-1.414 31.414-1.414 31.414z" fill="url(#i)"/></g></g><g transform="matrix(.125 0 0 .125 -9.953581125 -29.6095125)"><ellipse cx="-248.22359" cy="269.24872" fill="none" rx="37.090855" ry="37.090832" stroke-width="1.030301" transform="matrix(-.96592587 -.25881889 -.25881914 .9659258 0 0)"/><ellipse cx="-59.830322" cy="-331.66757" fill="#292929" filter="url(#a)" rx="22.14249" ry="22.142477" transform="matrix(-1.5649102 .40751746 -.41931615 -1.5208769 -62.623927 -153.42104)"/><ellipse cx="-80.343475" cy="-357.28802" fill="url(#b)" rx="35.236309" ry="35.23629" transform="matrix(-.96592587 .25881888 -.25881888 -.96592587 0 0)"/><circle cx="343.99899" cy="92" r="36" style="opacity:.8;fill:none;stroke-width:6.751382;clip-path:url(#d);stroke:url(#c);filter:url(#e)" transform="matrix(-.94543509 -.25332841 -.2533285 .94543442 518.6138 324.48398)"/><ellipse cx="-80.343567" cy="-357.28802" fill="url(#f)" rx="27.818144" ry="27.818125" stroke-width=".772726" transform="matrix(-.96592583 .25881905 -.25881905 -.96592583 0 0)"/><path d="m170.0789 292.02994c-13.15339 0-24.14425 9.28805-26.79334 21.65413 5.28035 4.92238 15.2995 8.24408 26.79334 8.24408 11.49382 0 21.51295-3.3217 26.7933-8.24408-2.64908-12.36608-13.63992-21.65413-26.7933-21.65413z" fill="url(#g)" opacity=".8" stroke-width="1.427359"/><path d="m145.31992 307.57121 16.23227 16.23227-16.23226 16.23226 8.52667 8.52667 16.23226-16.23226 16.23225 16.23226 8.52667-8.52667-16.23226-16.23226 16.23228-16.23228-8.52666-8.52667-16.23228 16.23228-16.23228-16.23227z" fill="#fff" fill-rule="evenodd"/></g></svg>

<?xml version="1.0" encoding="UTF-8" standalone="no"?>
<svg
   xmlns:dc="http://purl.org/dc/elements/1.1/"
   xmlns:cc="http://creativecommons.org/ns#"
   xmlns:rdf="http://www.w3.org/1999/02/22-rdf-syntax-ns#"
   xmlns:svg="http://www.w3.org/2000/svg"
   xmlns="http://www.w3.org/2000/svg"
   xmlns:xlink="http://www.w3.org/1999/xlink"
   xmlns:sodipodi="http://sodipodi.sourceforge.net/DTD/sodipodi-0.dtd"
   xmlns:inkscape="http://www.inkscape.org/namespaces/inkscape"
   enable-background="new 0 0 128 128"
   height="16"
   viewBox="0 0 16 16"
   width="16"
   version="1.1"
   id="svg2921"
   sodipodi:docname="sc_closedoc.svg"
   inkscape:version="0.92.4 (unknown)"
   inkscape:export-filename="/home/rizmut/Dokumen/Rizmut/Github/libreoffice-style-karasa-jaga/src/next/cmd/sc_closedoc.png"
   inkscape:export-xdpi="96"
   inkscape:export-ydpi="96">
  <metadata
     id="metadata2927">
    <rdf:RDF>
      <cc:Work
         rdf:about="">
        <dc:format>image/svg+xml</dc:format>
        <dc:type
           rdf:resource="http://purl.org/dc/dcmitype/StillImage" />
        <dc:title />
      </cc:Work>
    </rdf:RDF>
  </metadata>
  <defs
     id="defs2925">
    <filter
       inkscape:collect="always"
       style="color-interpolation-filters:sRGB"
       id="filter951"
       x="-0.035933025"
       width="1.0718662"
       y="-0.036070772"
       height="1.0721415">
      <feGaussianBlur
         inkscape:collect="always"
         stdDeviation="0.66434216"
         id="feGaussianBlur953" />
    </filter>
    <radialGradient
       inkscape:collect="always"
       xlink:href="#linearGradient1459"
       id="radialGradient921"
       cx="-55.685837"
       cy="-347.11612"
       fx="-55.685837"
       fy="-347.11612"
       r="22.14249"
       gradientTransform="matrix(-1.5371199,-0.41187002,0.44642111,-1.6660663,-3.5602738,-986.20032)"
       gradientUnits="userSpaceOnUse" />
    <linearGradient
       id="linearGradient1459"
       gradientUnits="userSpaceOnUse"
       x1="-84.002403"
       y1="-383.9971"
       x2="-12.0029"
       y2="-383.9971"
       gradientTransform="rotate(90,-90.0007,50.0022)">
      <stop
         offset="0"
         style="stop-color:#ce0000;stop-opacity:1"
         id="stop1455" />
      <stop
         offset="1"
         style="stop-color:#8b0000;stop-opacity:1"
         id="stop1457" />
    </linearGradient>
    <linearGradient
       inkscape:collect="always"
       xlink:href="#linearGradient1453"
       id="linearGradient6831"
       gradientUnits="userSpaceOnUse"
       x1="328.12448"
       y1="120.81158"
       x2="336.98077"
       y2="87.759453" />
    <linearGradient
       id="linearGradient1453">
      <stop
         style="stop-color:#ff6500;stop-opacity:1"
         offset="0"
         id="stop1449" />
      <stop
         style="stop-color:#983600;stop-opacity:1"
         offset="1"
         id="stop1451" />
    </linearGradient>
    <clipPath
       clipPathUnits="userSpaceOnUse"
       id="clipPath1518">
      <circle
         transform="matrix(0.86602539,0.50000002,0.49999965,-0.86602561,0,0)"
         id="ellipse1520"
         cy="92.325096"
         cx="343.91208"
         style="fill:url(#linearGradient1522);fill-opacity:1;stroke-width:1"
         r="36" />
    </clipPath>
    <filter
       inkscape:collect="always"
       id="filter7317">
      <feGaussianBlur
         inkscape:collect="always"
         stdDeviation="2.8805897"
         id="feGaussianBlur7319" />
    </filter>
    <radialGradient
       inkscape:collect="always"
       xlink:href="#linearGradient4770-3"
       id="radialGradient6829"
       gradientUnits="userSpaceOnUse"
       cx="343.99899"
       cy="92"
       fx="343.99899"
       fy="92"
       r="36"
       gradientTransform="matrix(0.77272624,0,0,0.77272572,-346.16061,-428.3788)" />
    <linearGradient
       gradientTransform="rotate(90,-90.0007,50.0022)"
       y2="-383.9971"
       x2="-12.0029"
       y1="-383.9971"
       x1="-84.002403"
       gradientUnits="userSpaceOnUse"
       id="linearGradient4770-3">
      <stop
         id="stop4772-6"
         style="stop-color:#e5ff00;stop-opacity:1"
         offset="0" />
      <stop
         id="stop4774-7"
         style="stop-color:#bff500;stop-opacity:0;"
         offset="1" />
    </linearGradient>
    <linearGradient
       inkscape:collect="always"
       xlink:href="#linearGradient3711-5"
       id="linearGradient6833"
       gradientUnits="userSpaceOnUse"
       gradientTransform="matrix(0,0.85652932,-0.85652994,0,57.018252,360.55477)"
       x1="-80.00296"
       y1="-131.93112"
       x2="-45.096584"
       y2="-131.93112" />
    <linearGradient
       gradientTransform="rotate(90,-90.0007,50.0022)"
       y2="-383.9975"
       x2="-23.516129"
       y1="-383.9971"
       x1="-84.002403"
       gradientUnits="userSpaceOnUse"
       id="linearGradient3711-5">
      <stop
         id="stop3713-3"
         style="stop-color:white;stop-opacity:1;"
         offset="0" />
      <stop
         id="stop3715-5"
         style="stop-color:white;stop-opacity:0;"
         offset="1" />
    </linearGradient>
  </defs>
  <sodipodi:namedview
     pagecolor="#ffffff"
     bordercolor="#666666"
     borderopacity="1"
     objecttolerance="10"
     gridtolerance="10"
     guidetolerance="10"
     inkscape:pageopacity="0"
     inkscape:pageshadow="2"
     inkscape:window-width="1366"
     inkscape:window-height="696"
     id="namedview2923"
     showgrid="true"
     inkscape:zoom="10.562408"
     inkscape:cx="-34.183903"
     inkscape:cy="10.875039"
     inkscape:window-x="0"
     inkscape:window-y="0"
     inkscape:window-maximized="1"
     inkscape:current-layer="svg2921">
    <inkscape:grid
       type="xygrid"
       id="grid4845" />
  </sodipodi:namedview>
  <linearGradient
     id="a"
     gradientUnits="userSpaceOnUse"
     x1="85.219681"
     x2="61.336319"
     y1="93.219681"
     y2="69.336319">
    <stop
       offset="0"
       id="stop2826" />
    <stop
       offset="1"
       stop-color="#393b38"
       id="stop2828" />
  </linearGradient>
  <linearGradient
     id="b"
     gradientUnits="userSpaceOnUse"
     x1="96"
     x2="88.000198"
     y1="104"
     y2="96.000198">
    <stop
       offset="0"
       stop-color="#888a85"
       id="stop2831" />
    <stop
       offset=".0072"
       stop-color="#8c8e89"
       id="stop2833" />
    <stop
       offset=".0673"
       stop-color="#abaca9"
       id="stop2835" />
    <stop
       offset=".1347"
       stop-color="#c5c6c4"
       id="stop2837" />
    <stop
       offset=".2115"
       stop-color="#dbdbda"
       id="stop2839" />
    <stop
       offset=".3012"
       stop-color="#ebebeb"
       id="stop2841" />
    <stop
       offset=".4122"
       stop-color="#f7f7f6"
       id="stop2843" />
    <stop
       offset=".5679"
       stop-color="#fdfdfd"
       id="stop2845" />
    <stop
       offset="1"
       stop-color="#fff"
       id="stop2847" />
  </linearGradient>
  <radialGradient
     id="c"
     cx="102"
     cy="112.3047"
     gradientTransform="matrix(0.9787234,0,0,0.9818182,1.361705,1.163636)"
     gradientUnits="userSpaceOnUse"
     r="139.55859">
    <stop
       offset="0"
       stop-color="#535557"
       id="stop2850" />
    <stop
       offset=".11366145"
       stop-color="#898a8c"
       id="stop2852" />
    <stop
       offset=".20296688"
       stop-color="#ececec"
       id="stop2854" />
    <stop
       offset=".2363"
       stop-color="#fafafa"
       id="stop2856" />
    <stop
       offset=".2722"
       stop-color="#fff"
       id="stop2858" />
    <stop
       offset=".5313"
       stop-color="#fafafa"
       id="stop2860" />
    <stop
       offset=".8449"
       stop-color="#ebecec"
       id="stop2862" />
    <stop
       offset="1"
       stop-color="#e1e2e3"
       id="stop2864" />
  </radialGradient>
  <radialGradient
     id="d"
     cx="102"
     cy="112.3047"
     gradientUnits="userSpaceOnUse"
     r="139.5585">
    <stop
       offset="0"
       stop-color="#00537d"
       id="stop2867" />
    <stop
       offset=".0151"
       stop-color="#186389"
       id="stop2869" />
    <stop
       offset=".0558"
       stop-color="#558ca8"
       id="stop2871" />
    <stop
       offset=".0964"
       stop-color="#89afc3"
       id="stop2873" />
    <stop
       offset=".1357"
       stop-color="#b3ccd8"
       id="stop2875" />
    <stop
       offset=".1737"
       stop-color="#d4e2e9"
       id="stop2877" />
    <stop
       offset=".2099"
       stop-color="#ecf2f5"
       id="stop2879" />
    <stop
       offset=".2435"
       stop-color="#fafcfd"
       id="stop2881" />
    <stop
       offset=".2722"
       stop-color="#fff"
       id="stop2883" />
  </radialGradient>
  <filter
     id="e">
    <feGaussianBlur
       stdDeviation="1.0394514"
       id="feGaussianBlur2886" />
  </filter>
  <filter
     id="f">
    <feGaussianBlur
       stdDeviation=".50063244"
       id="feGaussianBlur2889" />
  </filter>
  <filter
     id="g">
    <feGaussianBlur
       stdDeviation=".4901192"
       id="feGaussianBlur2892" />
  </filter>
  <filter
     id="h">
    <feGaussianBlur
       stdDeviation=".90565481"
       id="feGaussianBlur2895" />
  </filter>
  <filter
     id="i"
     height="1.247155"
     width="1.247155"
     x="-0.123577"
     y="-0.123577">
    <feGaussianBlur
       stdDeviation="1.7720846"
       id="feGaussianBlur2898" />
  </filter>
  <g
     id="g4869"
     transform="scale(0.125)">
    <g
       id="g3482">
      <path
         d="m 23,9 0.04082,112 H 84.172 c 0.53,0 1.039,-0.211 1.414,-0.586 L 118.414,87.586 C 118.789,87.211 119,86.702 119,86.172 V 9 Z"
         transform="matrix(1.0416667,0,0,1.0357143,-9.958333,-3.321534)"
         id="path2901"
         inkscape:connector-curvature="0"
         style="opacity:0.71506898;filter:url(#e)" />
      <path
         d="M 24.919999,10.931136 V 119.06907 l 58.676001,-1e-4 c 0.53,0 1.039,-0.211 1.414,-0.586 l 31.484,-31.765936 c 0.375,-0.375 0.586,-0.884 0.586,-1.414 V 10.931136 Z"
         transform="matrix(1.0416667,0,0,1.0357143,-9.958333,-3.321534)"
         id="path2903"
         inkscape:connector-curvature="0"
         style="opacity:0.89589;filter:url(#f)" />
      <path
         d="M 23,9.9655172 23.040816,121 H 84.172 c 0.53,0 1.039,-0.211 1.414,-0.586 13.296921,-8.21061 24.14086,-19.26784 32.828,-32.828 C 118.789,87.211 119,86.702 119,86.172 V 9.9655172 Z"
         transform="matrix(1.0416667,0,0,1.0357143,-9.958333,-3.321534)"
         id="path2905"
         inkscape:connector-curvature="0"
         style="opacity:0.83561599;filter:url(#e)" />
      <path
         d="m 16.000002,8 v 112 h 61.172 c 0.53,0 1.039,-0.211 1.414,-0.586 L 111.414,86.586 C 111.789,86.211 112,85.702 112,85.172 V 8 Z"
         id="path2907"
         style="fill:url(#d)"
         inkscape:connector-curvature="0" />
      <path
         d="m 24.678725,16 c -0.539276,0 -0.978723,0.440836 -0.978723,0.981818 l 0.3,94.036362 c 0,0.54197 0.439447,0.98182 0.978723,0.98182 h 51.913022 c 0.257404,0 0.509915,-0.10407 0.691957,-0.28767 L 103.71323,85.4812 C 103.89626,85.2976 104,85.045273 104,84.787055 V 16.981818 C 104,16.440836 103.56153,16 103.02128,16 Z"
         id="path2909"
         style="fill:url(#c)"
         inkscape:connector-curvature="0" />
      <g
         transform="translate(2e-6)"
         id="g2919">
        <path
           d="M 111.414,86.586 C 111.664,86.336 85.035,85 80,85 c -1.654,0 -3,1.346 -3,3 0,5.035 1.336,31.664 1.586,31.414 z"
           id="path2911"
           inkscape:connector-curvature="0"
           style="opacity:0.90684904;filter:url(#i)" />
        <path
           d="M 111.414,86.586 C 111.789,86.211 89.444,86 80,86 c -1.103,0 -2,0.897 -2,2 0,9.444 0.211,31.789 0.586,31.414 z"
           id="path2913"
           inkscape:connector-curvature="0"
           style="opacity:0.2;filter:url(#h)" />
        <path
           d="M 111.414,86.586 C 111.653,86.347 89.807,87 80,87 c -0.553,0 -1,0.447 -1,1 0,9.807 -0.653,31.653 -0.414,31.414 z"
           id="path2915"
           style="opacity:0.1;fill:url(#a);filter:url(#g)"
           inkscape:connector-curvature="0" />
        <path
           d="m 78.586,119.414 c 0,0 11.914,-9.914 17.414,-15.414 5.5,-5.5 15.414,-17.414 15.414,-17.414 0,0 -21.164,1.414 -31.414,1.414 0,10.25 -1.414,31.414 -1.414,31.414 z"
           id="path2917"
           style="fill:url(#b)"
           inkscape:connector-curvature="0" />
      </g>
    </g>
    <g
       id="g1173"
       transform="translate(-79.628649,-236.8761)">
      <ellipse
         transform="matrix(-0.96592587,-0.25881889,-0.25881914,0.9659258,0,0)"
         style="fill:url(#linearGradient5167);fill-opacity:1;stroke-width:1.03030109"
         rx="37.090855"
         cx="-248.22359"
         cy="269.24872"
         ry="37.090832"
         id="circle5165-1" />
      <ellipse
         style="fill:#292929;fill-opacity:1;stroke:none;stroke-width:0.61506897;filter:url(#filter951)"
         cx="-59.830322"
         cy="-331.66757"
         id="ellipse925"
         transform="matrix(-1.5649102,0.40751746,-0.41931615,-1.5208769,-62.623927,-153.42104)"
         rx="22.14249"
         ry="22.142477"
         clip-path="none"
         mask="none" />
      <ellipse
         mask="none"
         clip-path="none"
         ry="35.23629"
         rx="35.236309"
         transform="rotate(165.00001)"
         id="circle3581_2_"
         cy="-357.28802"
         cx="-80.343475"
         style="fill:url(#radialGradient921);fill-opacity:1;stroke:none;stroke-width:0.97878611" />
      <circle
         style="opacity:0.8;fill:none;fill-opacity:1;stroke:url(#linearGradient6831);stroke-width:6.75138187;stroke-miterlimit:4;stroke-dasharray:none;stroke-opacity:1;filter:url(#filter7317)"
         r="36"
         cx="343.99899"
         cy="92"
         id="circle4776"
         transform="matrix(-0.94543509,-0.25332841,-0.2533285,0.94543442,518.6138,324.48398)"
         clip-path="url(#clipPath1518)" />
      <ellipse
         ry="27.818125"
         rx="27.818144"
         style="fill:url(#radialGradient6829);fill-opacity:1;stroke-width:0.77272594"
         cx="-80.343567"
         cy="-357.28802"
         id="circle4383"
         transform="rotate(165)" />
      <path
         id="circle16776"
         d="m 170.0789,292.02994 c -13.15339,0 -24.14425,9.28805 -26.79334,21.65413 5.28035,4.92238 15.2995,8.24408 26.79334,8.24408 11.49382,0 21.51295,-3.3217 26.7933,-8.24408 -2.64908,-12.36608 -13.63992,-21.65413 -26.7933,-21.65413 z"
         style="opacity:0.8;fill:url(#linearGradient6833);fill-opacity:1;stroke-width:1.42735898"
         inkscape:connector-curvature="0" />
      <path
         sodipodi:nodetypes="ccccccccccccc"
         id="rect3232"
         d="m 145.31992,307.57121 16.23227,16.23227 -16.23226,16.23226 8.52667,8.52667 16.23226,-16.23226 16.23225,16.23226 8.52667,-8.52667 -16.23226,-16.23226 16.23228,-16.23228 -8.52666,-8.52667 -16.23228,16.23228 -16.23228,-16.23227 z"
         style="fill:#ffffff;fill-opacity:1;fill-rule:evenodd;stroke:none;stroke-width:8.25287342;stroke-linecap:round;stroke-linejoin:round;stroke-miterlimit:4;stroke-opacity:1"
         inkscape:connector-curvature="0" />
    </g>
  </g>
</svg>
